img/icon/p2p-protocol.svg

<?xml version="1.0" encoding="UTF-8"?>
<svg width="210px" height="152px" viewBox="0 0 210 152" version="1.1" xmlns="http://www.w3.org/2000/svg" xmlns:xlink="http://www.w3.org/1999/xlink">
    <!-- Generator: Sketch 49.1 (51147) - http://www.bohemiancoding.com/sketch -->
    <title>p2p-protocol</title>
    <desc>Created with Sketch.</desc>
    <defs>
        <polygon id="path-1" points="14.5907673 33 27.7774708 33 30 46 13 46"></polygon>
        <polygon id="path-2" points="14.5907673 33 27.7774708 33 30 46 13 46"></polygon>
        <rect id="path-3" x="87" y="6" width="34" height="24" rx="2"></rect>
        <rect id="path-4" x="12" y="55.5" width="34" height="24" rx="2"></rect>
        <rect id="path-5" x="165" y="91" width="34" height="24" rx="2"></rect>
        <rect id="path-6" x="65" y="115" width="34" height="24" rx="2"></rect>
    </defs>
    <g id="Page-1" stroke="none" stroke-width="1" fill="none" fill-rule="evenodd">
        <g id="p2p-protocol" transform="translate(1.000000, 1.000000)">
            <path d="M31.5,29.5 L31.5,117.5" id="Line-3-Copy-2" stroke="#DDDDDD" stroke-width="5" stroke-dasharray="5,10,5,10"></path>
            <path d="M187.5,32.5 L187.5,120.5" id="Line-3-Copy-4" stroke="#DDDDDD" stroke-width="5" stroke-dasharray="5,10,5,10"></path>
            <path d="M29.5,18.5 L168.5,18.5" id="Line-3-Copy-3" stroke="#DDDDDD" stroke-width="5" stroke-dasharray="5,10,5,10"></path>
            <path d="M49.5,125.5 L188.5,125.5" id="Line-3-Copy-5" stroke="#DDDDDD" stroke-width="5" stroke-dasharray="5,10,5,10"></path>
            <g id="computer-blue-copy-2" transform="translate(165.000000, 0.000000)">
                <rect id="Rectangle-2" stroke="#111111" stroke-width="2" transform="translate(21.500000, 17.000000) rotate(180.000000) translate(-21.500000, -17.000000) " x="0" y="0" width="43" height="34" rx="1.5"></rect>
                <rect id="Rectangle-2-Copy" stroke="#111111" stroke-width="2" fill="#D2D8F9" transform="translate(21.500000, 12.500000) rotate(180.000000) translate(-21.500000, -12.500000) " x="0" y="0" width="43" height="25" rx="1.5"></rect>
                <g id="Rectangle-8">
                    <use fill="#FFFFFF" fill-rule="evenodd" xlink:href="#path-1"></use>
                    <path stroke="#000000" stroke-width="2" d="M15.4758596,34 L14.1298257,45 L28.8145272,45 L26.9339255,34 L15.4758596,34 Z"></path>
                </g>
            </g>
            <g id="computer-green-copy-2" transform="translate(0.000000, 105.000000)">
                <rect id="Rectangle-2-Copy" stroke="#111111" stroke-width="2" fill="#CAE5CB" transform="translate(21.500000, 12.500000) rotate(180.000000) translate(-21.500000, -12.500000) " x="-3.55271368e-15" y="0" width="43" height="25" rx="1.5"></rect>
                <g id="Rectangle-8-Copy">
                    <use fill="#FFFFFF" fill-rule="evenodd" xlink:href="#path-2"></use>
                    <path stroke="#000000" stroke-width="2" d="M15.4758596,34 L14.1298257,45 L28.8145272,45 L26.9339255,34 L15.4758596,34 Z"></path>
                </g>
                <rect id="Rectangle-2" stroke="#111111" stroke-width="2" transform="translate(21.500000, 17.000000) rotate(180.000000) translate(-21.500000, -17.000000) " x="-3.55271368e-15" y="0" width="43" height="34" rx="1.5"></rect>
            </g>
            <g id="Rectangle-11">
                <use fill="#D2D8F9" fill-rule="evenodd" xlink:href="#path-3"></use>
                <rect stroke="#111111" stroke-width="2" x="88" y="7" width="32" height="22" rx="2"></rect>
            </g>
            <g id="Rectangle-11-Copy">
                <use fill="#CAE5CB" fill-rule="evenodd" xlink:href="#path-4"></use>
                <rect stroke="#111111" stroke-width="2" x="13" y="56.5" width="32" height="22" rx="2"></rect>
            </g>
            <g id="Rectangle-11-Copy-3">
                <use fill="#CAE5CB" fill-rule="evenodd" xlink:href="#path-5"></use>
                <rect stroke="#111111" stroke-width="2" x="166" y="92" width="32" height="22" rx="2"></rect>
            </g>
            <g id="Rectangle-11-Copy-2">
                <use fill="#D2D8F9" fill-rule="evenodd" xlink:href="#path-6"></use>
                <rect stroke="#111111" stroke-width="2" x="66" y="116" width="32" height="22" rx="2"></rect>
            </g>
            <path d="M97,137.255859 L66.5546875,137.255859 L66.5546875,133.320312 L72.5554588,127.54421 C73.2914309,126.835795 74.4429778,126.795853 75.2262652,127.451572 C78.8059571,130.448266 80.9896499,131.946612 81.7773437,131.946612 C82.5572497,131.946612 84.660033,129.275787 88.0856935,123.934136 L88.0856992,123.93414 C88.6819841,123.00435 89.9191125,122.73399 90.8489027,123.330275 C91.0114566,123.434523 91.1580556,123.561764 91.2841349,123.708035 L97,130.339329 L97,137.255859 Z" id="Path-2-Copy" fill="#111111"></path>
            <path d="M103.275707,24.5899106 C115.787241,18.1782021 109.562733,7.24598701 103.275707,13.6393722 C97.0009521,7.25850832 90.6757591,18.1595476 103.275707,24.5899106 Z" id="heart" fill="#111111" transform="translate(103.258922, 18.145466) rotate(10.000000) translate(-103.258922, -18.145466) "></path>
            <rect id="Rectangle-10-Copy-2" fill="#111111" x="18" y="62" width="20" height="2" rx="1"></rect>
            <rect id="Rectangle-10-Copy-4" fill="#111111" x="18" y="66" width="15" height="2" rx="1"></rect>
            <rect id="Rectangle-10-Copy-5" fill="#111111" x="18" y="70" width="20" height="2" rx="1"></rect>
            <polyline id="Path-2" stroke="#111111" stroke-width="2" points="177.103516 98.3515625 171.989258 103.058594 177.103516 107.765625"></polyline>
            <polyline id="Path-2-Copy-2" stroke="#111111" stroke-width="2" transform="translate(189.546387, 103.058594) scale(-1, 1) translate(-189.546387, -103.058594) " points="192.103516 98.3515625 186.989258 103.058594 192.103516 107.765625"></polyline>
            <path d="M184,96 L180,109.5" id="Line-3" stroke="#111111" stroke-width="2" stroke-linecap="square"></path>
            <circle id="Oval-9" fill="#111111" cx="81" cy="123" r="3"></circle>
        </g>
    </g>
</svg>

<svg width="210" height="152" xmlns="http://www.w3.org/2000/svg" xmlns:xlink="http://www.w3.org/1999/xlink"><defs><path id="a" d="M14.59 33h13.187L30 46H13z"/><path id="b" d="M14.59 33h13.187L30 46H13z"/><rect id="c" x="87" y="6" width="34" height="24" rx="2"/><rect id="d" x="12" y="55.5" width="34" height="24" rx="2"/><rect id="e" x="165" y="91" width="34" height="24" rx="2"/><rect id="f" x="65" y="115" width="34" height="24" rx="2"/></defs><g transform="translate(1 1)" fill="none" fill-rule="evenodd"><path d="M31.5 29.5v88M187.5 32.5v88M29.5 18.5h139M49.5 125.5h139" stroke="#DDD" stroke-width="5" stroke-dasharray="5,10,5,10"/><g transform="translate(165)"><rect stroke="#111" stroke-width="2" transform="rotate(180 21.5 17)" width="43" height="34" rx="1.5"/><rect stroke="#111" stroke-width="2" fill="#D2D8F9" transform="rotate(180 21.5 12.5)" width="43" height="25" rx="1.5"/><use fill="#FFF" xlink:href="#a"/><path stroke="#000" stroke-width="2" d="M15.476 34L14.13 45h14.685l-1.881-11H15.476z"/></g><g transform="translate(0 105)"><rect stroke="#111" stroke-width="2" fill="#CAE5CB" transform="rotate(180 21.5 12.5)" width="43" height="25" rx="1.5"/><use fill="#FFF" xlink:href="#b"/><path stroke="#000" stroke-width="2" d="M15.476 34L14.13 45h14.685l-1.881-11H15.476z"/><rect stroke="#111" stroke-width="2" transform="rotate(180 21.5 17)" width="43" height="34" rx="1.5"/></g><use fill="#D2D8F9" xlink:href="#c"/><rect stroke="#111" stroke-width="2" x="88" y="7" width="32" height="22" rx="2"/><use fill="#CAE5CB" xlink:href="#d"/><rect stroke="#111" stroke-width="2" x="13" y="56.5" width="32" height="22" rx="2"/><use fill="#CAE5CB" xlink:href="#e"/><rect stroke="#111" stroke-width="2" x="166" y="92" width="32" height="22" rx="2"/><use fill="#D2D8F9" xlink:href="#f"/><rect stroke="#111" stroke-width="2" x="66" y="116" width="32" height="22" rx="2"/><path d="M97 137.256H66.555v-3.936l6-5.776a2 2 0 0 1 2.671-.092c3.58 2.996 5.764 4.495 6.551 4.495.78 0 2.883-2.671 6.309-8.013a2 2 0 0 1 3.198-.226L97 130.339v6.917zM102.156 24.495c13.435-4.142 9.204-15.989 1.902-10.784-5.071-7.374-13.194 2.263-1.902 10.784z" fill="#111"/><rect fill="#111" x="18" y="62" width="20" height="2" rx="1"/><rect fill="#111" x="18" y="66" width="15" height="2" rx="1"/><rect fill="#111" x="18" y="70" width="20" height="2" rx="1"/><path stroke="#111" stroke-width="2" d="M177.104 98.352l-5.115 4.707 5.115 4.707M186.99 98.352l5.114 4.707-5.115 4.707"/><path d="M184 96l-4 13.5" stroke="#111" stroke-width="2" stroke-linecap="square"/><circle fill="#111" cx="81" cy="123" r="3"/></g></svg>
